!!!OTL: ES REISTE WOL EIN FASSBINDER
!!!ARE: Europa, Mitteleuropa, Deutschland
!!!SCT: E0130A
!!!YEM: Copyright 1995, estate of Helmut Schaffrath.
**kern
*ICvox
*Ivox
*M4/4
*k[f#]
*G:
{4d
=1
4g
8g
8g
4g
4a
=2
4b
4a
4g}
{8a
8b
=3
4cc
4cc
4b
8a
8g
=4
4a
4f#
4d}
{4d
=5
4a
8a
8a
4a
4cc
=6
4b
4a
4g}
{8a
8b
=7
4cc
4cc
4b
8a
8g
=8
4a
4f#
4d
8r}
{8d
=9
4g
8d
8g
4b
8g
8b
=10
2dd}
{2cc
=11
4b
8a
8b
4a
4a
=12
2g
4r}
==
!!!AGN: erzaehlendes Volks - Lied, Schalk -, Schelmen - Lied, Liebe; Handwerk     Ballade ?
!!!ONB: ESAC (Essen Associative Code) Database: ERK1
!!!AMT: simple quadruple
!!!AIN: vox
!!!EED: Helmut Schaffrath
!!!EEV: 1.0
*-
!!!title: @{OTL} [@{SCT}]
